public/svg/xata.svg

<svg xmlns="http://www.w3.org/2000/svg" width="1200" height="1200" fill="none" xmlns:v="https://vecta.io/nano"><path d="M1054.35 379.14c-.11 89.997-36 176.268-99.79 239.831v-.007L728.273 844.45c-7.841 7.82-20.58 7.84-27.927-.44-55.015-61.992-85.588-142.172-85.49-225.475.105-89.997 36-176.267 99.787-239.83l.007.006 206.74-206.014c18.63-18.569 49.12-18.701 64.92 2.325 43.99 58.525 68.13 130.088 68.04 204.118z" fill="url(#A)"/><path d="M244.786 620.345c-63.787-63.563-99.681-149.833-99.786-239.83-.087-74.03 24.048-145.594 68.035-204.119 15.803-21.026 46.293-20.893 64.928-2.324l206.74 206.016.007-.007c63.787 63.564 99.681 149.833 99.787 239.831a339.08 339.08 0 0 1-85.49 225.468c-7.348 8.28-20.087 8.26-27.927.45L244.793 620.339l-.007.006z" fill="url(#B)"/><path d="M946.05 1023.83c-16.63 20.39-47.03 20.21-65.63 1.59L752.727 897.58a20.07 20.07 0 0 1 .033-28.39l212.09-211.342c7.84-7.813 20.63-7.859 27.54.784 36.81 45.996 51.29 109.566 40.35 179.548-10.02 64.06-40.66 129.19-86.69 185.65z" fill="url(#C)"/><path d="M318.931 1026.8c-18.594 18.61-49.002 18.79-65.626-1.6-46.036-56.46-76.672-121.58-86.688-185.64-10.942-69.989 3.532-133.559 40.342-179.555 6.917-8.642 19.704-8.597 27.545-.784L446.595 870.57c7.854 7.82 7.869 20.54.034 28.38L318.931 1026.8z" fill="url(#C)"/><defs><linearGradient id="A" x1="599.676" y1="158.999" x2="599.676" y2="859.4" gradientUnits="userSpaceOnUse"><stop stop-color="#9f87ff"/><stop offset="1" stop-color="#8566ff"/></linearGradient><linearGradient id="B" x1="599.676" y1="159" x2="599.676" y2="859.4" gradientUnits="userSpaceOnUse"><stop stop-color="#9f87ff"/><stop offset="1" stop-color="#8566ff"/></linearGradient><linearGradient id="C" x1="599.676" y1="643.766" x2="599.676" y2="1039.93" gradientUnits="userSpaceOnUse"><stop stop-color="#de99f6"/><stop offset="1" stop-color="#d669fc"/></linearGradient></defs></svg>

<svg width="1200" height="1200" viewBox="0 0 1200 1200" fill="none" xmlns="http://www.w3.org/2000/svg"><path d="M1054.35 379.14C1054.24 469.137 1018.35 555.408 954.56 618.971V618.964L728.273 844.45C720.432 852.27 707.693 852.29 700.346 844.01C645.331 782.018 614.758 701.838 614.856 618.535C614.961 528.538 650.856 442.268 714.643 378.705L714.65 378.711L921.39 172.697C940.02 154.128 970.51 153.996 986.31 175.022C1030.3 233.547 1054.44 305.11 1054.35 379.14Z" fill="url(#paint0_linear_202_71)"/><path d="M244.786 620.345C180.999 556.782 145.105 470.512 145 380.515C144.913 306.485 169.048 234.921 213.035 176.396C228.838 155.37 259.328 155.503 277.963 174.072L484.703 380.088L484.71 380.081C548.497 443.645 584.391 529.914 584.497 619.912C584.594 703.214 554.022 783.395 499.007 845.38C491.659 853.66 478.92 853.64 471.08 845.83L244.793 620.339L244.786 620.345Z" fill="url(#paint1_linear_202_71)"/><path d="M946.05 1023.83C929.42 1044.22 899.02 1044.04 880.42 1025.42L752.727 897.58C744.891 889.73 744.906 877.02 752.76 869.19L964.85 657.848C972.69 650.035 985.48 649.989 992.39 658.632C1029.2 704.628 1043.68 768.198 1032.74 838.18C1022.72 902.24 992.08 967.37 946.05 1023.83Z" fill="url(#paint2_linear_202_71)"/><path d="M318.931 1026.8C300.337 1045.41 269.929 1045.59 253.305 1025.2C207.269 968.74 176.633 903.62 166.617 839.56C155.675 769.571 170.149 706.001 206.959 660.005C213.876 651.363 226.663 651.408 234.504 659.221L446.595 870.57C454.449 878.39 454.464 891.11 446.629 898.95L318.931 1026.8Z" fill="url(#paint3_linear_202_71)"/><defs><linearGradient id="paint0_linear_202_71" x1="599.676" y1="158.999" x2="599.676" y2="859.4" gradientUnits="userSpaceOnUse"><stop stop-color="#9F87FF"/><stop offset="1" stop-color="#8566FF"/></linearGradient><linearGradient id="paint1_linear_202_71" x1="599.676" y1="159" x2="599.676" y2="859.4" gradientUnits="userSpaceOnUse"><stop stop-color="#9F87FF"/><stop offset="1" stop-color="#8566FF"/></linearGradient><linearGradient id="paint2_linear_202_71" x1="599.676" y1="643.766" x2="599.676" y2="1039.93" gradientUnits="userSpaceOnUse"><stop stop-color="#DE99F6"/><stop offset="1" stop-color="#D669FC"/></linearGradient><linearGradient id="paint3_linear_202_71" x1="599.676" y1="643.766" x2="599.676" y2="1039.93" gradientUnits="userSpaceOnUse"><stop stop-color="#DE99F6"/><stop offset="1" stop-color="#D669FC"/></linearGradient></defs></svg>
